public/images/pages/filters/saturate.svg

<svg fill="none" height="23" viewBox="0 0 23 23" width="23" xmlns="http://www.w3.org/2000/svg"><path d="m16.8567 6.25585c-.2649 0-.5049-.09104-.7201-.27314-.1821-.19864-.2814-.43867-.298-.72008 0-.28142.0994-.51317.298-.69526l1.2664-1.24154c.1821-.18209.4055-.27314.6704-.27314.2814-.01655.5215.07449.7201.27314s.2897.43868.2731.72009c0 .26486-.091.48834-.2731.67043l-1.2415 1.26636c-.0828.09933-.1904.17382-.3228.22348-.1159.03311-.2401.04966-.3725.04966zm2.4086 3.84875h1.763c.2814 0 .5131.0993.6952.298.1987.1821.298.4138.298.6952 0 .2815-.0993.5215-.298.7201-.1821.1821-.4138.2732-.6952.2732h-1.763c-.2814 0-.5215-.0911-.7201-.2732-.1821-.1986-.2731-.4386-.2731-.7201 0-.2814.091-.5131.2731-.6952.1986-.1987.4387-.298.7201-.298zm-1.7133 6.1084 1.2415 1.2663c.1821.1821.2731.4139.2731.6953 0 .2649-.091.4966-.2731.6953-.1986.1986-.4304.2979-.6953.2979-.2648 0-.4966-.0993-.6952-.2979l-1.2664-1.2416c-.1986-.1821-.298-.4138-.298-.6952 0-.2815.0994-.5215.298-.7201.1987-.1987.4387-.298.7201-.298s.5132.0993.6953.298zm-6.5305 2.1354c.2814 0 .5132.0993.6952.298.1987.1821.298.4138.298.6952v1.763c0 .2814-.0993.5132-.298.6953-.182.1986-.4138.2979-.6952.2979s-.5215-.0993-.7201-.2979c-.1821-.1821-.2731-.4139-.2731-.6953v-1.763c0-.2814.091-.5131.2731-.6952.1986-.1987.4387-.298.7201-.298zm-7.77202-.8691 1.24153-1.2663c.18209-.1987.41385-.298.69526-.298.28142 0 .52144.0993.72009.298.19865.1986.29797.4386.29797.7201 0 .2814-.09932.5131-.29797.6952l-1.26637 1.2416c-.19864.1986-.43039.2979-.69526.2979-.26486 0-.49661-.0993-.69525-.2979-.1821-.1987-.27314-.4304-.27314-.6953 0-.2814.09104-.5132.27314-.6953zm.52144-6.3815c0 .2815-.09932.5215-.29797.7201-.18209.1821-.41384.2732-.69526.2732h-1.76298c-.281412 0-.521442-.0911-.720088-.2732-.182092-.1986-.2731376-.4386-.2731376-.7201 0-.2814.0910456-.5131.2731376-.6952.198646-.1987.438676-.298.720088-.298h1.76298c.28142 0 .51317.0993.69526.298.19865.1821.29797.4138.29797.6952zm.72009-5.11509-1.24153-1.26636c-.1821-.18209-.28142-.40557-.29797-.67043 0-.28141.09932-.52144.29797-.72009.19864-.19865.43039-.28969.69525-.27314.28142 0 .51317.09105.69526.27314l1.26637 1.24154c.19865.18209.28969.41384.27314.69526 0 .28141-.09105.52144-.27314.72008-.2152.1821-.44695.27314-.69526.27314-.31452 0-.55455-.09104-.72009-.27314zm6.53049-2.13544c-.2814 0-.5215-.09104-.7201-.27313-.1821-.19865-.2731-.43868-.2731-.72009v-1.76298c0-.281418.091-.513171.2731-.695263.1986-.198645.4387-.2979676.7201-.2979676s.5132.0993226.6952.2979676c.1987.182092.298.413845.298.695263v1.76298c0 .28141-.0993.52144-.298.72009-.182.18209-.4138.27313-.6952.27313zm0 10.92553c.5132 0 .9932-.0911 1.4402-.2732.4469-.1986.8359-.4635 1.167-.7945.3311-.3311.5877-.7201.7698-1.1671.1986-.4469.2979-.927.2979-1.4402 0-.5131-.0993-.9932-.2979-1.44014-.1821-.44695-.4387-.83597-.7698-1.16704-.3311-.33108-.7201-.58766-1.167-.76976-.447-.19864-.927-.29796-1.4402-.29796s-.9932.09932-1.4402.29796c-.44695.1821-.83596.43868-1.16704.76976-.33107.33107-.59594.72009-.79458 1.16704-.18209.44694-.27314.92704-.27314 1.44014 0 .5132.09105.9933.27314 1.4402.19864.447.46351.836.79458 1.1671.33108.331.72009.5959 1.16704.7945.447.1821.927.2732 1.4402.2732zm0-9.31153c.778 0 1.5064.14898 2.1851.44695.6952.29797 1.2912.70354 1.7878 1.21671.5132.49661.9187 1.09255 1.2167 1.78781.298.6787.447 1.40706.447 2.18506 0 .7781-.149 1.5147-.447 2.21-.298.6787-.7035 1.2746-1.2167 1.7878-.4966.4966-1.0926.8939-1.7878 1.1919-.6787.2979-1.4071.4469-2.1851.4469s-1.51469-.149-2.20995-.4469c-.6787-.298-1.27464-.6953-1.78781-1.1919-.49661-.5132-.8939-1.1091-1.19187-1.7878-.29797-.6953-.44695-1.4319-.44695-2.21 0-.778.14898-1.50636.44695-2.18506.29797-.69526.69526-1.2912 1.19187-1.78781.51317-.51317 1.10911-.91874 1.78781-1.21671.69526-.29797 1.43195-.44695 2.20995-.44695z" fill="#b4b4b4"/></svg>

<svg width="23" height="23" viewBox="0 0 23 23" fill="none" xmlns="http://www.w3.org/2000/svg">
<path d="M16.8567 6.25585C16.5918 6.25585 16.3518 6.16481 16.1366 5.98271C15.9545 5.78407 15.8552 5.54404 15.8386 5.26263C15.8386 4.98121 15.938 4.74946 16.1366 4.56737L17.403 3.32583C17.5851 3.14374 17.8085 3.05269 18.0734 3.05269C18.3548 3.03614 18.5949 3.12718 18.7935 3.32583C18.9921 3.52448 19.0832 3.76451 19.0666 4.04592C19.0666 4.31078 18.9756 4.53426 18.7935 4.71635L17.552 5.98271C17.4692 6.08204 17.3616 6.15653 17.2292 6.20619C17.1133 6.2393 16.9891 6.25585 16.8567 6.25585ZM19.2653 10.1046H21.0283C21.3097 10.1046 21.5414 10.2039 21.7235 10.4026C21.9222 10.5847 22.0215 10.8164 22.0215 11.0978C22.0215 11.3793 21.9222 11.6193 21.7235 11.8179C21.5414 12 21.3097 12.0911 21.0283 12.0911H19.2653C18.9839 12.0911 18.7438 12 18.5452 11.8179C18.3631 11.6193 18.2721 11.3793 18.2721 11.0978C18.2721 10.8164 18.3631 10.5847 18.5452 10.4026C18.7438 10.2039 18.9839 10.1046 19.2653 10.1046ZM17.552 16.213L18.7935 17.4793C18.9756 17.6614 19.0666 17.8932 19.0666 18.1746C19.0666 18.4395 18.9756 18.6712 18.7935 18.8699C18.5949 19.0685 18.3631 19.1678 18.0982 19.1678C17.8334 19.1678 17.6016 19.0685 17.403 18.8699L16.1366 17.6283C15.938 17.4462 15.8386 17.2145 15.8386 16.9331C15.8386 16.6516 15.938 16.4116 16.1366 16.213C16.3353 16.0143 16.5753 15.915 16.8567 15.915C17.1381 15.915 17.3699 16.0143 17.552 16.213ZM11.0215 18.3484C11.3029 18.3484 11.5347 18.4477 11.7167 18.6464C11.9154 18.8285 12.0147 19.0602 12.0147 19.3416V21.1046C12.0147 21.386 11.9154 21.6178 11.7167 21.7999C11.5347 21.9985 11.3029 22.0978 11.0215 22.0978C10.7401 22.0978 10.5 21.9985 10.3014 21.7999C10.1193 21.6178 10.0283 21.386 10.0283 21.1046V19.3416C10.0283 19.0602 10.1193 18.8285 10.3014 18.6464C10.5 18.4477 10.7401 18.3484 11.0215 18.3484ZM3.24948 17.4793L4.49101 16.213C4.6731 16.0143 4.90486 15.915 5.18627 15.915C5.46769 15.915 5.70771 16.0143 5.90636 16.213C6.10501 16.4116 6.20433 16.6516 6.20433 16.9331C6.20433 17.2145 6.10501 17.4462 5.90636 17.6283L4.63999 18.8699C4.44135 19.0685 4.2096 19.1678 3.94473 19.1678C3.67987 19.1678 3.44812 19.0685 3.24948 18.8699C3.06738 18.6712 2.97634 18.4395 2.97634 18.1746C2.97634 17.8932 3.06738 17.6614 3.24948 17.4793ZM3.77092 11.0978C3.77092 11.3793 3.6716 11.6193 3.47295 11.8179C3.29086 12 3.05911 12.0911 2.77769 12.0911H1.01471C0.733298 12.0911 0.493268 12 0.294622 11.8179C0.11253 11.6193 0.0214844 11.3793 0.0214844 11.0978C0.0214844 10.8164 0.11253 10.5847 0.294622 10.4026C0.493268 10.2039 0.733298 10.1046 1.01471 10.1046H2.77769C3.05911 10.1046 3.29086 10.2039 3.47295 10.4026C3.6716 10.5847 3.77092 10.8164 3.77092 11.0978ZM4.49101 5.98271L3.24948 4.71635C3.06738 4.53426 2.96806 4.31078 2.95151 4.04592C2.95151 3.76451 3.05083 3.52448 3.24948 3.32583C3.44812 3.12718 3.67987 3.03614 3.94473 3.05269C4.22615 3.05269 4.4579 3.14374 4.63999 3.32583L5.90636 4.56737C6.10501 4.74946 6.19605 4.98121 6.1795 5.26263C6.1795 5.54404 6.08845 5.78407 5.90636 5.98271C5.69116 6.16481 5.45941 6.25585 5.2111 6.25585C4.89658 6.25585 4.65655 6.16481 4.49101 5.98271ZM11.0215 3.84727C10.7401 3.84727 10.5 3.75623 10.3014 3.57414C10.1193 3.37549 10.0283 3.13546 10.0283 2.85405V1.09107C10.0283 0.809652 10.1193 0.577899 10.3014 0.395807C10.5 0.197162 10.7401 0.0978394 11.0215 0.0978394C11.3029 0.0978394 11.5347 0.197162 11.7167 0.395807C11.9154 0.577899 12.0147 0.809652 12.0147 1.09107V2.85405C12.0147 3.13546 11.9154 3.37549 11.7167 3.57414C11.5347 3.75623 11.3029 3.84727 11.0215 3.84727ZM11.0215 14.7728C11.5347 14.7728 12.0147 14.6817 12.4617 14.4996C12.9086 14.301 13.2976 14.0361 13.6287 13.7051C13.9598 13.374 14.2164 12.985 14.3985 12.538C14.5971 12.0911 14.6964 11.611 14.6964 11.0978C14.6964 10.5847 14.5971 10.1046 14.3985 9.65766C14.2164 9.21071 13.9598 8.82169 13.6287 8.49062C13.2976 8.15954 12.9086 7.90296 12.4617 7.72086C12.0147 7.52222 11.5347 7.4229 11.0215 7.4229C10.5083 7.4229 10.0283 7.52222 9.5813 7.72086C9.13435 7.90296 8.74534 8.15954 8.41426 8.49062C8.08319 8.82169 7.81832 9.21071 7.61968 9.65766C7.43759 10.1046 7.34654 10.5847 7.34654 11.0978C7.34654 11.611 7.43759 12.0911 7.61968 12.538C7.81832 12.985 8.08319 13.374 8.41426 13.7051C8.74534 14.0361 9.13435 14.301 9.5813 14.4996C10.0283 14.6817 10.5083 14.7728 11.0215 14.7728ZM11.0215 5.46127C11.7995 5.46127 12.5279 5.61025 13.2066 5.90822C13.9018 6.20619 14.4978 6.61176 14.9944 7.12493C15.5076 7.62154 15.9131 8.21748 16.2111 8.91274C16.5091 9.59144 16.6581 10.3198 16.6581 11.0978C16.6581 11.8759 16.5091 12.6125 16.2111 13.3078C15.9131 13.9865 15.5076 14.5824 14.9944 15.0956C14.4978 15.5922 13.9018 15.9895 13.2066 16.2875C12.5279 16.5854 11.7995 16.7344 11.0215 16.7344C10.2435 16.7344 9.50681 16.5854 8.81155 16.2875C8.13285 15.9895 7.53691 15.5922 7.02374 15.0956C6.52713 14.5824 6.12984 13.9865 5.83187 13.3078C5.5339 12.6125 5.38492 11.8759 5.38492 11.0978C5.38492 10.3198 5.5339 9.59144 5.83187 8.91274C6.12984 8.21748 6.52713 7.62154 7.02374 7.12493C7.53691 6.61176 8.13285 6.20619 8.81155 5.90822C9.50681 5.61025 10.2435 5.46127 11.0215 5.46127Z" fill="#B4B4B4"/>
</svg>
